X: 14628
T: Gan Ainm
R: reel
M: 4/4
K: Dmajor
DEGA Bddd|eggg a2ga|bage dBAG|AdBA GEEE|
DEGA Bddd|eggg a2ga|bage dBAG|1 AdBA G3E:|2 AdBA G3d||
gbag egdg|eaag eaaf|gbag egdg|eaag g3 f|
gbag egdg|egge dBAB|DEGA Bdge|1 dBAB G3d:|2 dBAB G3E||

